!!key: tele-40-3-Fan-Gra-1-Flute
!!!COM: Telemann, Georg Philipp
!!!CDT: 1681/03/14-1767/06/25
!!!CBL: Magdeburg
!!!CDL: Hamburg
!!!CNT: German
!!!TWV: 40:3
!!!TWV-genre: 40
!!!TWV-work: 3
!!!OPR: 12 Fantasias for transverse flute without bass
!!!OTL: Fantasia 2
!!!OMD: Grave
!!!OMV: 1
!!!ODT: ca. 1732–1733
!!!AST: Late Baroque
!!!AGN: Fantasia
!!!AMT: Simple triple
!!!AIN: Transverse flute
**kern
*ICww
*Iflt
*clefG2
*k[]
*a:
*M3/4
=1
4a
4cc
4ee
=2
4f
16r
16eeLL
16dd
16cc#XJJ
16ddLL
16ff
16aa
16dddJJ
=3
4g
4b
4dd
=4
4e
16r
16ddLL
16cc
16bJJ
16ccLL
16ee
16gg
16cccJJ
=5
4f
4a
4cc
=6
16dLL
16cc
16b
16aJJ
16ccLL
16a
16g#X
16aJJ
16g#LL
16a
16g#
16aJJ
!!LO:LB:g=original
=7
16eLL
16a
16g#X
16aJJ
16ccLL
16a
16g#
16aJJ
16g#LL
16a
16g#
16aJJ
=8
16fLL
16a
16dd
16fJJ
16aLL
16dd
16ff
16aJJ
16ddLL
16ff
16aa
16ddJJ
=9
16ffLL
16aa
16ddd
16ffJJ
16aaLL
16dd
16ff
16aJJ
4dd
=10
8r
8d
!TODO: trill +
4.a
16g#LL
16aJJ
=11
16g#XLL
16dd#X
16ee
16bJJ
16g#LL
16a
16b
16g#JJ
4e
==
*-
!!!RTL1: G. PH. Telemann: Twelve Fantasias for Flute without Bass TWV 40:2-13
!!!RPN1: D'Arcangelo, Rita
!!!RMM1: Da Vinci Classics
!!!RC#1: DV-C00440
!!!RRD1: 2022
!!!RLC1: Andreaskirche, Berlin, Germany
!!!RDT1: 16 September 2020, 17 September 2020
!!!RT#1: 2
!!!RTL2: The Telemann Files: 12 Fantasies for Solo Flute
!!!RPN2: Choi, Jasmine
!!!RMM2: Austrian Gramophone
!!!RC#2: AG0001
!!!RRD2: February 2015
!!!RLC2: LeFrak Hall, Queens, USA
!!!RDT2: 9 June 2014, 10 June 2014
!!!RT#2: 2
!!!RTL3: Georg Philipp Telemann: Twelve Fantasies for Flute
!!!RPN3: Robertello, Thomas
!!!RMM3: Delos
!!!RC#3: DE3396
!!!RRD3: 1 June 2009
!!!RLC3: Clear Creek Recording, Keene, California
!!!RDT3: Unknown
!!!RT#3: 2
